Web/public/assets/icons/arrow-accent.svg

<svg width="10" height="10" viewBox="0 0 10 10" fill="none" xmlns="http://www.w3.org/2000/svg">
<path d="M9.79113 0.209207C10.0701 0.48815 10.0701 0.940417 9.79113 1.21936L1.69592 9.31457C1.41698 9.59352 0.964713 9.59352 0.68577 9.31457C0.406827 9.03562 0.406827 8.58343 0.68577 8.30447L8.78104 0.209207C9.05999 -0.0697357 9.51218 -0.0697357 9.79113 0.209207Z" fill="#EF5744"/>
<path d="M0 0.714286C0 0.3198 0.3198 0 0.714286 0H9.28571C9.68019 0 10 0.3198 10 0.714286V9.28571C10 9.68019 9.68019 10 9.28571 10C8.89124 10 8.57143 9.68019 8.57143 9.28571V1.42857H0.714286C0.3198 1.42857 0 1.10877 0 0.714286Z" fill="#EF5744"/>
</svg>

<svg version="1.2" xmlns="http://www.w3.org/2000/svg" viewBox="0 0 10 10" width="10" height="10"><style>.a{fill:#1a3636}</style><path class="a" d="m9.8 0.2c0.3 0.3 0.3 0.7 0 1l-8.1 8.1c-0.3 0.3-0.7 0.3-1 0-0.3-0.3-0.3-0.7 0-1l8.1-8.1c0.3-0.3 0.7-0.3 1 0z"/><path class="a" d="m0 0.7c0-0.4 0.3-0.7 0.7-0.7h8.6c0.4 0 0.7 0.3 0.7 0.7v8.6c0 0.4-0.3 0.7-0.7 0.7-0.4 0-0.7-0.3-0.7-0.7v-7.9h-7.9c-0.4 0-0.7-0.3-0.7-0.7z"/></svg>
